packages/kaspersky-hexa-ui-icons/src/iconsSVGs/24/Add1.svg

<svg width="24" height="24" viewBox="0 0 24 24" fill="none" xmlns="http://www.w3.org/2000/svg">
<path d="M7.46802 12.8501C7.46802 12.2978 7.91573 11.8501 8.46802 11.8501H11V9.31815C11 8.76586 11.4477 8.31815 12 8.31815C12.5523 8.31815 13 8.76586 13 9.31815V11.8501H15.5319C16.0842 11.8501 16.5319 12.2978 16.5319 12.8501C16.5319 13.4024 16.0842 13.8501 15.5319 13.8501H13V16.382C13 16.9343 12.5523 17.382 12 17.382C11.4477 17.382 11 16.9343 11 16.382V13.8501H8.46802C7.91573 13.8501 7.46802 13.4024 7.46802 12.8501Z" fill="black"/>
<path fill-rule="evenodd" clip-rule="evenodd" d="M2 12.8501C2 7.32725 6.47715 2.8501 12 2.8501C17.5228 2.8501 22 7.32725 22 12.8501C22 18.3729 17.5228 22.8501 12 22.8501C6.47715 22.8501 2 18.3729 2 12.8501ZM12 4.8501C7.58172 4.8501 4 8.43182 4 12.8501C4 17.2684 7.58172 20.8501 12 20.8501C16.4183 20.8501 20 17.2684 20 12.8501C20 8.43182 16.4183 4.8501 12 4.8501Z" fill="black"/>
</svg>

<svg xmlns="http://www.w3.org/2000/svg" width="24" height="24" fill="none" viewBox="0 0 24 24"><path fill="#000" d="M7.468 12.8501c0-.5523.4477-1 1-1H11v-2.532c0-.5522.4477-1 1-1s1 .4478 1 1v2.532h2.5319c.5523 0 1 .4477 1 1s-.4477 1-1 1H13v2.5319c0 .5523-.4477 1-1 1s-1-.4477-1-1v-2.5319H8.468c-.5523 0-1-.4477-1-1"/><path fill="#000" fill-rule="evenodd" d="M2 12.8501c0-5.5228 4.4772-10 10-10s10 4.4772 10 10-4.4772 10-10 10-10-4.4772-10-10m10-8c-4.4183 0-8 3.5817-8 8s3.5817 8 8 8 8-3.5817 8-8-3.5817-8-8-8" clip-rule="evenodd"/></svg>
